X:107
T:Bleckynden's Maggot THO1,107
M:6/8
L:1/8
Z:vmp. Peter Dunk 2012.from a transcription by Fynn Titford-Mock 2006
B:Thompson's Compleat Collection of 200 Favourite Country Dances Vol.I,1758
Q:3/8=100
K:F
faf faf|gcc ccc|BdB BdB|AFF FFF|\
faf faf|gcc fdd|ecc d=BB|cCC CCC:|
|:gbg gbg|aff fff|bag fed|^cde ecA|\
bgg aff|bgg aff|f/g/af cfe|f3F3:|

